icon-svg/bulb-group.svg

<?xml version="1.0" encoding="UTF-8"?>
<svg width="32px" height="32px" viewBox="0 0 32 32" version="1.1" fill="#44739e" xmlns="http://www.w3.org/2000/svg" xmlns:xlink="http://www.w3.org/1999/xlink">
            <path d="M16.3425306,24.0066472 C17.5575306,24.1226472 18.8945306,24.1666472 19.8425306,24.1666472 C20.7915306,24.1666472 22.1275306,24.1226472 23.3425306,24.0066472 L22.7585306,27.6316472 C22.7285306,27.8866472 22.6045306,28.1226472 22.4085306,28.3006472 L21.8635306,28.7956472 C21.8275306,28.8286472 21.7925306,28.8646472 21.7615306,28.9026472 L21.1865306,29.5836472 C20.9635306,29.8466472 20.6255306,29.9996472 20.2695306,29.9996472 L19.8425306,29.9996472 L19.4165306,29.9996472 C19.0595306,29.9996472 18.7215306,29.8466472 18.4995306,29.5836472 L17.9245306,28.9026472 C17.8925306,28.8646472 17.8585306,28.8286472 17.8215306,28.7956472 L17.2775306,28.3006472 C17.0805306,28.1226472 16.9575306,27.8866472 16.9265306,27.6316472 L16.3425306,24.0066472 Z M7.22923064,21.8748472 C8.13323064,21.9618472 9.12623064,21.9938472 9.83323064,21.9938472 C10.5392306,21.9938472 11.5332306,21.9618472 12.4362306,21.8748472 L12.0002306,24.2378472 C11.9772306,24.4278472 11.8842306,24.6038472 11.7402306,24.7358472 L11.3342306,25.1038472 C11.3072306,25.1288472 11.2812306,25.1548472 11.2572306,25.1838472 L10.8302306,25.6898472 C10.6652306,25.8858472 10.4142306,25.9998472 10.1482306,25.9998472 L9.83123064,25.9998472 L9.51323064,25.9998472 C9.24823064,25.9998472 8.99723064,25.8858472 8.83223064,25.6898472 L8.40423064,25.1838472 C8.37923064,25.1548472 8.35423064,25.1288472 8.32723064,25.1038472 L7.92123064,24.7358472 C7.77623064,24.6038472 7.68423064,24.4278472 7.66223064,24.2378472 L7.22923064,21.8748472 Z M27.1872306,3.63074717 C28.9662306,5.26774717 27.3472306,8.28074717 26.8032306,9.35674717 C25.3382306,9.78274717 22.9942306,10.1667472 19.8372306,10.1667472 C16.6822306,10.1667472 14.3372306,9.78274717 12.8732306,9.35674717 C12.3292306,8.28074717 10.7082306,5.26774717 12.4882306,3.63074717 C14.3902306,1.88174717 19.5172306,2.00174717 19.8372306,2.00174717 C20.1592306,2.00174717 25.2862306,1.88174717 27.1872306,3.63074717 Z M19.8376306,11.3328472 C21.6146306,11.3328472 24.2056306,11.1668472 26.2966306,10.6878472 C24.7126306,15.6098472 24.4416306,20.1128472 24.4956306,21.3948472 C24.5076306,21.6898472 24.4066306,21.9728472 24.2116306,22.1968472 L23.6966306,22.7858472 C22.5886306,22.9168472 21.3016306,22.9998472 19.8376306,22.9998472 C18.3736306,22.9998472 17.0876306,22.9168472 15.9786306,22.7858472 L15.4636306,22.1968472 C15.2696306,21.9728472 15.1676306,21.6898472 15.1806306,21.3948472 C15.2336306,20.1128472 14.9636306,15.6098472 13.3796306,10.6878472 C15.4706306,11.1668472 18.0616306,11.3328472 19.8376306,11.3328472 Z M12.6843306,11.8299472 C11.8713306,11.9339472 10.9193306,11.9999472 9.83033064,11.9999472 C7.57633064,11.9999472 5.90033064,11.7189472 4.85433064,11.4039472 C4.46533064,10.6139472 3.30933064,8.39994717 4.58033064,7.19794717 C5.93833064,5.91294717 9.60033064,6.00094717 9.83033064,6.00094717 C9.89333064,6.00094717 10.2253306,5.99494717 10.6933306,6.01294717 C10.8153306,7.50994717 11.5563306,8.86594717 11.9253306,9.69994717 C11.9253306,9.69994717 12.1693306,10.2919472 12.4273306,10.9949472 C12.5173306,11.2739472 12.6033306,11.5529472 12.6843306,11.8299472 Z M12.9470306,12.7703472 C13.1830306,13.6613472 13.3780306,14.5293472 13.5390306,15.3563472 C13.0970306,17.5233472 13.0040306,19.2713472 13.0300306,19.8963472 C13.0390306,20.1003472 12.9690306,20.2933472 12.8360306,20.4483472 L12.4820306,20.8523472 C11.7190306,20.9423472 10.8360306,20.9993472 9.83003064,20.9993472 C8.82403064,20.9993472 7.93903064,20.9423472 7.17703064,20.8523472 L6.82403064,20.4483472 C6.69003064,20.2933472 6.62103064,20.1003472 6.62903064,19.8963472 C6.66603064,19.0153472 6.48003064,15.9213472 5.39103064,12.5403472 C6.82803064,12.8683472 8.60903064,12.9823472 9.83003064,12.9823472 C10.6950306,12.9823472 11.8410306,12.9203472 12.9470306,12.7703472 Z"></path>
</svg>

<svg xmlns="http://www.w3.org/2000/svg" fill="#44739e" viewBox="0 0 24 24"><path d="M16.3425 24.0066c1.215.116 2.552.16 3.5.16.949 0 2.285-.044 3.5-.16l-.584 3.625c-.03.255-.154.491-.35.669l-.545.495c-.036.033-.071.069-.102.107l-.575.681c-.223.263-.561.416-.917.416h-.853c-.357 0-.695-.153-.917-.416l-.575-.681a1.04 1.04 0 0 0-.103-.107l-.544-.495c-.197-.178-.32-.414-.351-.669zm-9.1133-2.1318c.904.087 1.897.119 2.604.119.706 0 1.7-.032 2.603-.119l-.436 2.363c-.023.19-.116.366-.26.498l-.406.368a.8.8 0 0 0-.077.08l-.427.506c-.165.196-.416.31-.682.31h-.635c-.265 0-.516-.114-.681-.31l-.428-.506a1 1 0 0 0-.077-.08l-.406-.368c-.145-.132-.237-.308-.259-.498zm19.958-18.244c1.779 1.637.16 4.65-.384 5.726-1.465.426-3.809.81-6.966.81-3.155 0-5.5-.384-6.964-.81-.544-1.076-2.165-4.089-.385-5.726 1.902-1.749 7.029-1.629 7.349-1.629.322 0 5.449-.12 7.35 1.629m-7.3496 7.702c1.777 0 4.368-.166 6.459-.645-1.584 4.922-1.855 9.425-1.801 10.707.012.295-.089.578-.284.802l-.515.589c-1.108.131-2.395.214-3.859.214s-2.75-.083-3.859-.214l-.515-.589c-.194-.224-.296-.507-.283-.802.053-1.282-.217-5.785-1.801-10.707 2.091.479 4.682.645 6.458.645m-7.1533.4971c-.813.104-1.765.17-2.854.17-2.254 0-3.93-.281-4.976-.596-.389-.79-1.545-3.004-.274-4.206 1.358-1.285 5.02-1.197 5.25-1.197.063 0 .395-.006.863.012.122 1.497.863 2.853 1.232 3.687 0 0 .244.592.502 1.295.09.279.176.558.257.835m.2627.9404c.236.891.431 1.759.592 2.586-.442 2.167-.535 3.915-.509 4.54.009.204-.061.397-.194.552l-.354.404c-.763.09-1.646.147-2.652.147s-1.891-.057-2.653-.147l-.353-.404c-.134-.155-.203-.348-.195-.552.037-.881-.149-3.975-1.238-7.356 1.437.328 3.218.442 4.439.442.865 0 2.011-.062 3.117-.212"/></svg>
